app/dist/common/images/jallesmachadon-nm.svg

<svg fill="none" height="18" width="18" xmlns="http://www.w3.org/2000/svg"><path d="m0 0h18v18h-18z" fill="#31117b"/><path d="m6.5 6h1.5l-.912 4.087c-.12.931-.748 1.913-2.021 1.913-.375 0-.744-.103-1.067-.26v-1.5c.086.083.632.26.773.26.396 0 .79-.327.79-.587zm3.5 2-.5 4h-1.5l1.352-6h1.648v4l1.333-4h1.667l-.5 6h-1.5l.667-4-1.167 4h-1.5z" fill="#f0f3fa"/></svg>

<!-- by TradingView --><svg width="18" height="18" fill="none" xmlns="http://www.w3.org/2000/svg"><path fill="#31117B" d="M0 0h18v18H0z"/><path d="M6.5 6H8l-.912 4.087C6.968 11.018 6.34 12 5.067 12c-.375 0-.744-.103-1.067-.26v-1.5c.086.083.632.26.773.26.396 0 .79-.327.79-.587L6.5 6ZM10 8l-.5 4H8l1.352-6H11v4l1.333-4H14l-.5 6H12l.667-4-1.167 4H10V8Z" fill="#F0F3FA"/></svg>
